homeworks/konstantin.tsarenko_KTsarenko/homework_markup_1/images/lifesaver.svg

<?xml version="1.0"?>
<svg xmlns="http://www.w3.org/2000/svg" height="512px" viewBox="0 0 512 512" width="512px"><path d="m481.992188 405.699219c0 .101562.007812.199219.007812.300781 0 41.90625-34.09375 76-76 76-.101562 0-.199219-.007812-.300781-.007812-12.777344 8.503906-26.195313 15.867187-40.136719 22.027343 12.683594 5.25 26.328125 7.980469 40.4375 7.980469 58.449219 0 106-47.550781 106-106 0-14.109375-2.730469-27.753906-7.980469-40.4375-6.160156 13.941406-13.523437 27.359375-22.027343 40.136719zm0 0" fill="#dddddd"/><path d="m106 482c-41.90625 0-76-34.09375-76-76 0-.101562.007812-.199219.007812-.300781-8.503906-12.777344-15.867187-26.195313-22.027343-40.136719-5.25 12.683594-7.980469 26.328125-7.980469 40.4375 0 58.449219 47.550781 106 106 106 14.109375 0 27.753906-2.730469 40.4375-7.980469-13.941406-6.160156-27.359375-13.523437-40.136719-22.027343-.101562 0-.199219.007812-.300781.007812zm0 0" fill="#dddddd"/><path d="m30.007812 106.300781c0-.101562-.007812-.199219-.007812-.300781 0-41.90625 34.09375-76 76-76 .101562 0 .199219.007812.300781.007812 12.777344-8.503906 26.195313-15.867187 40.136719-22.027343-12.683594-5.25-26.328125-7.980469-40.4375-7.980469-58.449219 0-106 47.550781-106 106 0 14.109375 2.730469 27.753906 7.980469 40.4375 6.160156-13.941406 13.523437-27.359375 22.027343-40.136719zm0 0" fill="#dddddd"/><path d="m406 30c41.90625 0 76 34.09375 76 76 0 .101562-.007812.199219-.007812.300781 8.503906 12.777344 15.867187 26.195313 22.027343 40.136719 5.25-12.683594 7.980469-26.328125 7.980469-40.4375 0-58.449219-47.550781-106-106-106-14.109375 0-27.753906 2.730469-40.4375 7.980469 13.941406 6.160156 27.359375 13.523437 40.136719 22.027343.101562 0 .199219-.007812.300781-.007812zm0 0" fill="#dddddd"/><path d="m75.320312 96.535156c-34.4375 38.988282-56.449218 89.207032-59.84375 144.464844h135.585938c2.558594-18.0625 9.664062-34.660156 20.128906-48.59375zm0 0" fill="#dddddd"/><path d="m340.808594 319.59375 95.871094 95.871094c34.4375-38.988282 56.449218-89.207032 59.84375-144.464844h-135.585938c-2.558594 18.0625-9.664062 34.660156-20.128906 48.59375zm0 0" fill="#dddddd"/><path d="m15.476562 271c3.394532 55.257812 25.40625 105.476562 59.84375 144.464844l95.871094-95.871094c-10.464844-13.933594-17.570312-30.53125-20.128906-48.59375zm0 0" fill="#dddddd"/><path d="m192.40625 171.191406c13.933594-10.464844 30.53125-17.570312 48.59375-20.128906v-135.585938c-55.257812 3.394532-105.476562 25.40625-144.464844 59.84375zm0 0" fill="#dddddd"/><path d="m319.59375 340.808594c-13.933594 10.464844-30.53125 17.570312-48.59375 20.128906v135.582031c55.257812-3.394531 105.476562-25.402343 144.464844-59.839843zm0 0" fill="#dddddd"/><path d="m96.535156 436.679688c38.988282 34.4375 89.207032 56.449218 144.464844 59.84375v-135.585938c-18.0625-2.558594-34.660156-9.664062-48.59375-20.128906zm0 0" fill="#dddddd"/><path d="m415.464844 75.320312c-38.988282-34.4375-89.207032-56.449218-144.464844-59.84375v135.585938c18.0625 2.558594 34.660156 9.664062 48.59375 20.128906zm0 0" fill="#dddddd"/><path d="m436.679688 96.535156-95.871094 95.871094c10.464844 13.933594 17.570312 30.53125 20.128906 48.59375h135.582031c-3.390625-55.257812-25.402343-105.476562-59.839843-144.464844zm0 0" fill="#dddddd"/></svg>

<svg xmlns="http://www.w3.org/2000/svg" height="512" width="512"><path d="M481.992 405.7c0 .1.008.198.008.3 0 41.906-34.094 76-76 76-.102 0-.2-.008-.3-.008a267.716 267.716 0 0 1-40.137 22.028C378.245 509.27 391.89 512 406 512c58.45 0 106-47.55 106-106 0-14.11-2.73-27.754-7.98-40.438a267.716 267.716 0 0 1-22.028 40.137zm0 0M106 482c-41.906 0-76-34.094-76-76 0-.102.008-.2.008-.3A267.716 267.716 0 0 1 7.98 365.562C2.73 378.245 0 391.89 0 406c0 58.45 47.55 106 106 106 14.11 0 27.754-2.73 40.438-7.98a267.716 267.716 0 0 1-40.137-22.028c-.102 0-.2.008-.301.008zm0 0M30.008 106.3c0-.1-.008-.198-.008-.3 0-41.906 34.094-76 76-76 .102 0 .2.008.3.008A267.716 267.716 0 0 1 146.439 7.98C133.754 2.73 120.108 0 106 0 47.55 0 0 47.55 0 106c0 14.11 2.73 27.754 7.98 40.438A267.716 267.716 0 0 1 30.008 106.3zm0 0M406 30c41.906 0 76 34.094 76 76 0 .102-.008.2-.008.3a267.716 267.716 0 0 1 22.028 40.138C509.27 133.754 512 120.108 512 106 512 47.55 464.45 0 406 0c-14.11 0-27.754 2.73-40.438 7.98A267.716 267.716 0 0 1 405.7 30.008c.102 0 .2-.008.301-.008zm0 0M75.32 96.535C40.883 135.523 18.871 185.742 15.477 241h135.585c2.56-18.063 9.665-34.66 20.13-48.594zm0 0M340.809 319.594l95.87 95.87c34.438-38.987 56.45-89.206 59.844-144.464H360.938c-2.56 18.063-9.665 34.66-20.13 48.594zm0 0M15.477 271c3.394 55.258 25.406 105.477 59.843 144.465l95.871-95.871c-10.464-13.934-17.57-30.531-20.129-48.594zm0 0M192.406 171.191c13.934-10.464 30.531-17.57 48.594-20.129V15.477C185.742 18.87 135.523 40.883 96.535 75.32zm0 0M319.594 340.809c-13.934 10.464-30.531 17.57-48.594 20.129V496.52c55.258-3.395 105.477-25.403 144.465-59.84zm0 0M96.535 436.68c38.988 34.437 89.207 56.449 144.465 59.843V360.937c-18.063-2.558-34.66-9.664-48.594-20.128zm0 0M415.465 75.32C376.477 40.883 326.258 18.871 271 15.477v135.585c18.063 2.56 34.66 9.665 48.594 20.13zm0 0M436.68 96.535l-95.871 95.871c10.464 13.934 17.57 30.531 20.128 48.594H496.52c-3.391-55.258-25.403-105.477-59.84-144.465zm0 0" fill="#ddd"/></svg>
